src/assets/outline/ClipboardTick.svg

<svg width="24" height="24" viewBox="0 0 24 24"  xmlns="http://www.w3.org/2000/svg">
<path d="M10.81 16.9496C10.62 16.9496 10.43 16.8796 10.28 16.7296L8.78 15.2296C8.49 14.9396 8.49 14.4596 8.78 14.1696C9.07 13.8796 9.55 13.8796 9.84 14.1696L10.81 15.1396L14.28 11.6696C14.57 11.3796 15.05 11.3796 15.34 11.6696C15.63 11.9596 15.63 12.4396 15.34 12.7296L11.34 16.7296C11.2 16.8796 11 16.9496 10.81 16.9496Z" />
<path d="M14 6.75H10C9.04 6.75 7.25 6.75 7.25 4C7.25 1.25 9.04 1.25 10 1.25H14C14.96 1.25 16.75 1.25 16.75 4C16.75 4.96 16.75 6.75 14 6.75ZM10 2.75C9.01 2.75 8.75 2.75 8.75 4C8.75 5.25 9.01 5.25 10 5.25H14C15.25 5.25 15.25 4.99 15.25 4C15.25 2.75 14.99 2.75 14 2.75H10Z" />
<path d="M15 22.7504H9C3.38 22.7504 2.25 20.1704 2.25 16.0004V10.0004C2.25 5.44042 3.9 3.49042 7.96 3.28042C8.37 3.26042 8.73 3.57042 8.75 3.99042C8.77 4.41042 8.45 4.75042 8.04 4.77042C5.2 4.93042 3.75 5.78042 3.75 10.0004V16.0004C3.75 19.7004 4.48 21.2504 9 21.2504H15C19.52 21.2504 20.25 19.7004 20.25 16.0004V10.0004C20.25 5.78042 18.8 4.93042 15.96 4.77042C15.55 4.75042 15.23 4.39042 15.25 3.98042C15.27 3.57042 15.62 3.25042 16.04 3.27042C20.1 3.49042 21.75 5.44042 21.75 9.99042V15.9904C21.75 20.1704 20.62 22.7504 15 22.7504Z" />
</svg>

<?xml version="1.0" encoding="UTF-8"?>
<svg width="24" height="24" viewBox="0 0 24 24" xmlns="http://www.w3.org/2000/svg">
 <path d="m10.81 16.95c-0.19 0-0.38-0.07-0.53-0.22l-1.5-1.5c-0.29-0.29-0.29-0.77 0-1.06s0.77-0.29 1.06 0l0.97 0.97 3.47-3.47c0.29-0.29 0.77-0.29 1.06 0s0.29 0.77 0 1.06l-4 4c-0.14 0.15-0.34 0.22-0.53 0.22z"/>
 <path d="m14 6.75h-4c-0.96 0-2.75 0-2.75-2.75s1.79-2.75 2.75-2.75h4c0.96 0 2.75 0 2.75 2.75 0 0.96 0 2.75-2.75 2.75zm-4-4c-0.99 0-1.25 0-1.25 1.25s0.26 1.25 1.25 1.25h4c1.25 0 1.25-0.26 1.25-1.25 0-1.25-0.26-1.25-1.25-1.25h-4z"/>
 <path d="m15 22.75h-6c-5.62 0-6.75-2.58-6.75-6.75v-6c0-4.56 1.65-6.51 5.71-6.72 0.41-0.02 0.77 0.29 0.79 0.71s-0.3 0.76-0.71 0.78c-2.84 0.16-4.29 1.01-4.29 5.23v6c0 3.7 0.73 5.25 5.25 5.25h6c4.52 0 5.25-1.55 5.25-5.25v-6c0-4.22-1.45-5.07-4.29-5.23-0.41-0.02-0.73-0.38-0.71-0.79s0.37-0.73 0.79-0.71c4.06 0.22 5.71 2.17 5.71 6.72v6c0 4.18-1.13 6.76-6.75 6.76z"/>
</svg>
